Catalina-dark/actions/22/archive-insert.svg

<?xml version="1.0" encoding="UTF-8" standalone="no"?>
<svg
   xmlns:dc="http://purl.org/dc/elements/1.1/"
   xmlns:cc="http://creativecommons.org/ns#"
   xmlns:rdf="http://www.w3.org/1999/02/22-rdf-syntax-ns#"
   xmlns:svg="http://www.w3.org/2000/svg"
   xmlns="http://www.w3.org/2000/svg"
   xmlns:sodipodi="http://sodipodi.sourceforge.net/DTD/sodipodi-0.dtd"
   xmlns:inkscape="http://www.inkscape.org/namespaces/inkscape"
   viewBox="0 0 22 22"
   id="svg2"
   version="1.1"
   inkscape:version="0.91 r13725"
   sodipodi:docname="archive-insert.svg">
  <metadata
     id="metadata10">
    <rdf:RDF>
      <cc:Work
         rdf:about="">
        <dc:format>image/svg+xml</dc:format>
        <dc:type
           rdf:resource="http://purl.org/dc/dcmitype/StillImage" />
      </cc:Work>
    </rdf:RDF>
  </metadata>
  <sodipodi:namedview
     pagecolor="#ffffff"
     bordercolor="#666666"
     borderopacity="1"
     objecttolerance="10"
     gridtolerance="10"
     guidetolerance="10"
     inkscape:pageopacity="0"
     inkscape:pageshadow="2"
     inkscape:window-width="640"
     inkscape:window-height="480"
     id="namedview8"
     showgrid="false"
     inkscape:zoom="28.954545"
     inkscape:cx="4.8524333"
     inkscape:cy="11"
     inkscape:current-layer="svg2" />
  <defs
     id="defs3051">
    <style
       type="text/css"
       id="current-color-scheme">
      .ColorScheme-Text {
        color:#f2f2f2
      }
      </style>
  </defs>
  <path
     style="color:#f2f2f2;fill:currentColor;fill-opacity:1;stroke:none"
     class="ColorScheme-Text"
     d="M 3.8876851,3 C 3.3951873,3 3,3.35758 3,3.80078 L 3,18.19922 C 3,18.64242 3.3951873,19 3.8876851,19 L 18.112315,19 C 18.604813,19 19,18.64242 19,18.19922 L 19,3.80078 C 19,3.35758 18.604813,3 18.112315,3 L 3.8876851,3 Z m 6.2854029,4.66602 1.653824,0 c -0.0022,0.71306 0,2.58984 0,2.58984 l 2.680412,0 0,1.48828 -2.680412,0 c 0,0 0.0011,1.8736 0,2.58984 l -1.653824,0 c 0.0011,-0.71624 0,-2.58984 0,-2.58984 0,0 -1.792894,-10e-4 -2.6804124,0 l 0,-1.48633 c 0.8875184,-0.002 2.6804124,-0.002 2.6804124,-0.002 0,0 -0.0011,-1.87682 0,-2.58984 z"
     id="path6"
     inkscape:connector-curvature="0" />
</svg>

<svg version="1.1" viewBox="0 0 22 22" xmlns="http://www.w3.org/2000/svg">
<defs>
<style id="current-color-scheme" type="text/css">.ColorScheme-Text {
        color:#f2f2f2
      }</style>
</defs>
<path class="ColorScheme-Text" d="m3.8877 3c-0.4925 0-0.88769 0.35758-0.88769 0.80078v14.398c0 0.4432 0.39519 0.80078 0.88769 0.80078h14.225c0.4925 0 0.88768-0.35758 0.88768-0.80078v-14.398c0-0.4432-0.39519-0.80078-0.88768-0.80078h-14.225zm6.2854 4.666h1.6538c-0.0022 0.71306 0 2.5898 0 2.5898h2.6804v1.4883h-2.6804s0.0011 1.8736 0 2.5898h-1.6538c0.0011-0.71624 0-2.5898 0-2.5898s-1.7929-1e-3 -2.6804 0v-1.4863c0.88752-2e-3 2.6804-2e-3 2.6804-2e-3s-0.0011-1.8768 0-2.5898z" color="#f2f2f2" fill="currentColor"/>
</svg>
